icons/scan-crosshatch-16.svg

<?xml version="1.0" encoding="UTF-8"?><svg id="icons" xmlns="http://www.w3.org/2000/svg" viewBox="0 0 16 16"><path d="m10,9v-2h5l-5-5-1-1v5h-2v-3.15326c.29352-.17419.5-.48065.5-.84674,0-.55231-.44769-1-1-1s-1,.44769-1,1c0,.36609.20648.67255.5.84674v3.15326h-3l-2-1,.98547,1.5-.98547,1.5,2-1h3v2H1l5,5,1,1v-5h2v5l1-1,4-4,1-1h-5Zm0-5.69763l2.69757,2.69763h-2.69757v-2.69763Zm-4,9.3952l-2.69757-2.69757h2.69757v2.69757Zm1-3.69757v-2h2v2h-2Zm3,3.69757v-2.69757h2.69757l-2.69757,2.69757Z" style="stroke-width:0px;"/><rect width="16" height="16" style="fill:none; stroke-width:0px;"/></svg>

<svg xmlns="http://www.w3.org/2000/svg" viewBox="0 0 16 16"><path d="M10 9V7h5l-5-5-1-1v5H7V2.847c.294-.174.5-.48.5-.847a1 1 0 1 0-2 0c0 .366.206.673.5.847V6H3L1 5l.985 1.5L1 8l2-1h3v2H1l5 5 1 1v-5h2v5l1-1 4-4 1-1h-5zm0-5.698L12.698 6H10V3.302zm-4 9.396L3.302 10H6v2.698zM7 9V7h2v2H7zm3 3.698V10h2.698L10 12.698z" stroke-width="0"/><path fill="none" stroke-width="0" d="M0 0h16v16H0z"/></svg>
